svgs/light/send-back.svg

<svg xmlns="http://www.w3.org/2000/svg" viewBox="0 0 640 512"><!--! Font Awesome Pro 6.6.0 by @fontawesome - https://fontawesome.com License - https://fontawesome.com/license (Commercial License) Copyright 2024 Fonticons, Inc. --><path d="M192 32c17.7 0 32 14.3 32 32l0 128c0 17.7-14.3 32-32 32L64 224c-17.7 0-32-14.3-32-32L32 64c0-17.7 14.3-32 32-32l128 0zM64 0C28.7 0 0 28.7 0 64L0 192c0 35.3 28.7 64 64 64l128 0c35.3 0 64-28.7 64-64l0-128c0-35.3-28.7-64-64-64L64 0zM576 288c17.7 0 32 14.3 32 32l0 128c0 17.7-14.3 32-32 32l-128 0c-17.7 0-32-14.3-32-32l0-128c0-17.7 14.3-32 32-32l128 0zM448 256c-35.3 0-64 28.7-64 64l0 128c0 35.3 28.7 64 64 64l128 0c35.3 0 64-28.7 64-64l0-128c0-35.3-28.7-64-64-64l-128 0zM160 288l0 64c0 35.3 28.7 64 64 64l128 0 0-32-128 0c-17.7 0-32-14.3-32-32l0-64-32 0zM416 96L288 96l0 32 128 0c17.7 0 32 14.3 32 32l0 64 32 0 0-64c0-35.3-28.7-64-64-64zm0 96c0-17.7-14.3-32-32-32l-96 0 0 32 96 0 0 56.4c9.2-8.3 20.1-14.8 32-19l0-37.5zM256 320l0-56.4c-9.2 8.3-20.1 14.8-32 19l0 37.5c0 17.7 14.3 32 32 32l96 0 0-32-96 0z"/></svg>

<svg xmlns="http://www.w3.org/2000/svg" viewBox="0 0 640 512"><!--! Font Awesome Pro 6.4.0 by @fontawesome - https://fontawesome.com License - https://fontawesome.com/license (Commercial License) Copyright 2023 Fonticons, Inc. --><path d="M192 32c17.7 0 32 14.3 32 32V192c0 17.7-14.3 32-32 32H64c-17.7 0-32-14.3-32-32V64c0-17.7 14.3-32 32-32H192zM64 0C28.7 0 0 28.7 0 64V192c0 35.3 28.7 64 64 64H192c35.3 0 64-28.7 64-64V64c0-35.3-28.7-64-64-64H64zM576 288c17.7 0 32 14.3 32 32V448c0 17.7-14.3 32-32 32H448c-17.7 0-32-14.3-32-32V320c0-17.7 14.3-32 32-32H576zM448 256c-35.3 0-64 28.7-64 64V448c0 35.3 28.7 64 64 64H576c35.3 0 64-28.7 64-64V320c0-35.3-28.7-64-64-64H448zM160 288v64c0 35.3 28.7 64 64 64H352V384H224c-17.7 0-32-14.3-32-32V288H160zM416 96H288v32H416c17.7 0 32 14.3 32 32v64h32V160c0-35.3-28.7-64-64-64zM152 96c4.4 0 8 3.6 8 8v48c0 4.4-3.6 8-8 8H104c-4.4 0-8-3.6-8-8V104c0-4.4 3.6-8 8-8h48zM104 64c-22.1 0-40 17.9-40 40v48c0 22.1 17.9 40 40 40h48c22.1 0 40-17.9 40-40V104c0-22.1-17.9-40-40-40H104zM488 352h48c4.4 0 8 3.6 8 8v48c0 4.4-3.6 8-8 8H488c-4.4 0-8-3.6-8-8V360c0-4.4 3.6-8 8-8zm-40 8v48c0 22.1 17.9 40 40 40h48c22.1 0 40-17.9 40-40V360c0-22.1-17.9-40-40-40H488c-22.1 0-40 17.9-40 40z"/></svg>
